X: 40980
T: Trip To Doghouse
R: reel
M: 4/4
K: Dminor
CB,|:"Dm"(A,D)DE "D"DE^FG|"Am" A>=BcB AG=FE|"Dm"FD2D "D"DE^FA|"Dm"dcAG =FEDC|"Dm"(A,D)DE "D"DE^FG|
"F" A>=BcB AG=FE|1 "F" F>GAf "Am" edcA|"Dm" FDD/D/D D2C_B,:|2 "F"F>GAf "Am"edA=B|"Am"cAA/A/A A3e||
|:"Dm" fefd "Am"cAA/A/A|"Dm"f>efd "Gm"gfde|"Am"fefd "F"cAA/A/A|"Dm"((3FGA) =Bc d2de|"Dm"f>efd "C"ecA_B|
"F"cAFG "Dm"AFDE|1 "F"F>GAf "Am"edA=B|"Am"cAA/A/A A3e:|2 "F" F>GAf "Am"edcA|"Dm"FDD/D/D "Bb"D3 B,||

